dist/svg/u1F455.svg

<?xml version="1.0" encoding="UTF-8"?><svg id="a" xmlns="http://www.w3.org/2000/svg" viewBox="0 0 40 40"><g><path d="M27.48,5.45H12.52c-1.742,0-3.427,.624-4.749,1.758L1.734,12.389c-.243,.209-.305,.561-.147,.84l4.169,7.382c.184,.325,.598,.438,.921,.251l2.751-1.594c.173-.101,.391,.025,.391,.225v17.314c0,.494,.401,.895,.895,.895H29.286c.494,0,.895-.401,.895-.895V19.492c0-.2,.217-.326,.391-.225l2.751,1.594c.323,.187,.738,.075,.921-.251l4.169-7.382c.158-.279,.096-.631-.147-.84l-6.036-5.18c-1.322-1.135-3.007-1.758-4.749-1.758Z" fill="#4592fb"/><path d="M16.677,10.514l-3.462-5.047,1.828-3.169,5.068,5.47-2.601,2.807c-.233,.252-.64,.222-.834-.061Z" fill="#93c9ff"/><path d="M23.547,10.514l3.462-5.047-1.828-3.169-5.068,5.47,2.601,2.807c.233,.252,.64,.222,.834-.061Z" fill="#93c9ff"/><polygon points="15.043 2.299 25.18 2.299 20.112 7.768 15.043 2.299" fill="#2f81f9"/></g><rect width="40" height="40" fill="none"/></svg>

<svg id="Layer_1" data-name="Layer 1" xmlns="http://www.w3.org/2000/svg" viewBox="0 0 40 40"><defs><style>.cls-1{fill:#4592fb;}.cls-2{fill:#93c9ff;}.cls-3{fill:#2f81f9;}.cls-4{fill:none;}</style></defs><path class="cls-1" d="M27.48,5.45H12.52A7.291,7.291,0,0,0,7.771,7.209l-6.037,5.18a.672.672,0,0,0-.147.84l4.169,7.382a.673.673,0,0,0,.922.251l2.751-1.595a.261.261,0,0,1,.391.225V36.807a.894.894,0,0,0,.894.894H29.286a.894.894,0,0,0,.894-.894V19.492a.261.261,0,0,1,.391-.225l2.751,1.595a.673.673,0,0,0,.922-.251l4.169-7.382a.672.672,0,0,0-.147-.84l-6.037-5.18A7.289,7.289,0,0,0,27.48,5.45Z"/><path class="cls-2" d="M16.677,10.514,13.215,5.467,15.043,2.3l5.069,5.469-2.6,2.807A.535.535,0,0,1,16.677,10.514Z"/><path class="cls-2" d="M23.547,10.514l3.461-5.047L25.18,2.3,20.112,7.768l2.6,2.807A.535.535,0,0,0,23.547,10.514Z"/><polygon class="cls-3" points="15.043 2.299 25.18 2.299 20.112 7.768 15.043 2.299"/><rect class="cls-4" width="40" height="40"/></svg>
